<?xml version="1.0" encoding="UTF-8"?>
<map version="1.10" tiledversion="1.11.2" orientation="orthogonal" renderorder="right-down" width="64" height="64" tilewidth="32" tileheight="32" infinite="0" nextlayerid="4" nextobjectid="1">
 <tileset firstgid="1" name="ground_tiles" tilewidth="32" tileheight="32" tilecount="441" columns="21">
  <image source="img_tileset/ground_tiles.png" width="672" height="701"/>
 </tileset>
 <tileset firstgid="442" name="Cliff_tileset" tilewidth="32" tileheight="32" tilecount="240" columns="15">
  <image source="img_tileset/Cliff_tileset.png" width="503" height="518"/>
 </tileset>
 <layer id="1" name="Solo 1" width="64" height="64">
  <data encoding="csv">
44,45,44,44,44,44,44,44,44,44,44,44,44,44,45,44,45,44,44,44,44,44,44,65,65,65,65,65,65,65,65,65,65,44,44,45,44,45,44,45,44,45,44,45,44,45,44,45,44,45,44,45,44,45,44,45,44,45,44,45,44,45,44,45,
65,66,65,65,65,65,65,65,65,65,65,44,45,45,45,44,45,45,45,45,45,45,65,65,66,66,66,45,45,45,44,45,44,65,44,44,45,66,65,66,65,66,65,66,65,66,65,66,65,66,65,66,65,66,65,66,65,66,65,66,65,66,65,66,
44,66,44,44,44,44,44,45,45,45,45,45,45,44,44,44,44,44,44,44,44,44,44,45,66,65,66,66,66,66,45,45,45,44,44,45,44,44,45,45,44,45,44,45,44,45,44,45,44,45,44,45,44,45,44,45,44,45,44,45,44,45,44,45,
65,65,65,65,65,65,44,44,44,44,44,44,44,65,65,65,65,65,44,44,44,44,44,45,44,44,44,45,45,65,66,66,66,45,45,44,65,44,44,44,45,66,65,66,65,66,65,66,65,66,65,66,65,66,65,66,65,66,65,66,65,66,65,66,
44,45,45,45,45,44,45,45,45,45,45,45,45,45,66,44,65,66,65,65,65,44,45,45,45,45,45,45,66,65,66,65,66,66,66,45,45,44,45,45,45,45,44,45,44,45,44,45,44,45,44,45,44,45,44,45,44,45,44,45,44,45,44,45,
44,44,44,44,44,44,44,44,44,44,44,44,44,44,45,45,45,45,45,65,44,45,45,66,66,66,66,66,45,44,45,44,45,44,65,66,44,45,45,66,66,45,65,66,65,66,65,66,65,66,65,66,65,66,65,66,65,66,65,66,65,66,65,66,
65,65,65,65,65,44,44,44,44,44,44,45,65,44,44,44,44,44,44,45,45,45,66,66,45,45,45,65,66,65,66,65,66,65,44,45,45,45,66,66,66,66,45,45,45,45,45,45,44,45,44,45,44,45,44,45,44,45,44,45,44,45,44,45,
44,44,44,45,45,45,45,45,44,45,45,45,45,45,45,44,45,45,45,45,66,66,44,65,66,66,66,45,45,45,45,44,45,44,45,45,66,66,44,45,65,66,66,66,66,66,66,66,65,66,65,66,65,66,65,66,65,66,65,66,65,66,65,66,
44,45,45,45,66,66,66,44,45,45,66,44,45,45,45,45,66,66,45,45,45,45,45,45,44,44,44,44,44,44,44,44,44,45,45,66,44,44,44,44,44,44,44,65,65,65,66,45,44,45,44,45,44,45,44,45,44,45,44,45,44,45,44,45,
44,45,45,45,45,45,45,44,44,45,45,45,45,66,66,66,44,44,44,44,44,44,44,44,65,65,65,65,65,65,44,65,65,66,66,65,65,65,65,65,65,65,65,66,65,66,65,66,65,66,65,66,65,66,65,66,65,66,65,66,65,66,65,66,
45,44,44,44,44,45,66,45,45,45,66,66,44,44,44,44,65,65,65,65,65,65,65,65,65,66,66,66,66,66,65,65,66,45,44,45,44,45,44,45,44,45,44,45,44,45,44,45,44,45,44,45,44,45,44,45,44,45,44,45,44,45,44,45,
44,45,65,65,44,44,44,44,45,44,44,44,65,65,65,65,65,66,66,66,66,66,45,45,45,45,45,45,45,66,65,66,65,66,65,66,65,66,65,66,65,66,65,66,65,66,65,66,65,66,65,66,65,66,65,66,65,66,65,66,65,66,65,66,
44,45,45,65,65,44,45,44,45,45,45,45,45,44,45,45,45,45,45,45,45,65,66,66,66,66,66,66,45,45,45,45,45,45,44,45,44,45,44,45,44,45,44,45,44,45,44,45,44,45,44,45,44,45,44,45,44,45,44,45,44,45,44,45,
44,44,45,44,45,44,44,45,45,44,45,45,44,45,45,44,44,44,44,44,44,44,44,44,44,44,44,65,66,66,66,66,66,45,45,45,45,45,45,45,65,66,65,66,65,66,65,66,65,66,65,66,65,66,65,66,65,66,65,66,65,66,65,66,
44,44,45,44,45,65,44,44,44,44,44,44,44,44,44,44,65,65,65,65,65,65,65,65,65,65,65,65,65,65,44,44,65,66,66,66,66,66,66,66,44,45,44,45,44,45,44,45,44,45,44,45,44,45,44,45,44,45,44,45,44,45,44,45,
44,44,44,45,45,45,45,45,65,65,65,65,65,65,65,65,66,44,44,44,44,44,44,44,44,44,44,45,44,45,65,65,65,65,65,65,65,65,65,66,65,66,65,66,65,66,65,66,65,66,65,66,65,66,65,66,65,66,65,66,65,66,65,66,
44,45,45,45,66,66,66,66,45,45,45,45,45,66,66,66,66,65,65,65,65,65,65,65,65,44,45,45,45,66,65,66,65,66,65,66,44,44,65,66,44,45,44,45,44,45,44,45,44,45,44,45,44,45,44,45,44,45,44,45,44,45,44,45,
44,44,44,45,45,45,66,65,66,66,66,66,45,45,45,45,66,44,45,45,45,45,45,44,45,45,45,66,44,44,44,44,44,44,44,44,65,65,65,66,65,66,65,66,65,66,65,66,65,66,65,66,65,66,65,66,65,66,65,66,65,66,65,66,
65,65,44,44,44,44,44,44,44,44,44,44,44,44,44,44,44,44,44,44,44,44,44,44,44,44,44,44,65,65,65,65,65,65,65,65,66,45,44,45,44,45,44,45,44,45,44,45,44,45,44,45,44,45,44,45,44,45,44,45,44,45,44,45,
65,44,65,65,65,65,65,65,65,65,65,65,65,65,65,65,65,65,65,65,65,65,65,65,65,65,65,65,66,66,65,66,65,66,65,66,65,66,65,66,65,66,65,66,65,66,65,66,65,66,65,66,65,66,65,66,65,66,65,66,65,66,65,66,
65,44,44,45,66,44,44,45,45,45,45,65,44,44,45,45,45,65,66,66,66,45,45,65,65,65,65,65,65,66,44,45,44,45,44,45,44,45,44,45,44,45,44,45,44,45,44,45,44,45,44,45,44,45,44,45,44,45,44,45,44,45,44,45,
65,44,44,44,44,45,45,45,44,45,66,44,44,45,45,66,66,65,65,65,66,66,66,45,65,66,65,66,65,66,65,66,65,66,65,66,65,66,65,66,65,66,65,66,65,66,65,66,65,66,65,66,65,66,65,66,65,66,65,66,65,66,65,66,
44,44,44,65,44,45,44,44,44,44,44,45,45,45,66,66,66,65,65,65,65,65,66,66,45,45,44,45,44,45,44,45,44,45,44,45,44,45,44,45,44,45,44,45,44,45,44,45,44,45,44,45,44,45,44,45,44,45,44,45,44,45,44,45,
65,65,65,44,44,45,45,45,45,45,45,45,66,66,65,66,45,44,45,44,45,44,65,66,66,45,65,66,65,66,65,66,65,66,65,66,65,66,65,66,65,66,65,66,65,66,65,66,65,66,65,66,65,66,65,66,65,66,65,66,65,66,65,66,
45,45,44,45,45,45,66,66,66,66,45,45,65,65,65,66,66,65,66,65,66,65,66,65,66,66,44,45,44,45,44,45,44,45,44,45,44,45,44,45,44,45,44,45,44,45,44,45,44,45,44,45,44,45,44,45,44,45,44,45,44,45,44,45,
45,66,44,45,66,66,65,65,66,66,66,66,45,44,45,44,45,44,45,44,45,44,45,44,65,66,65,66,65,66,65,66,65,66,65,66,65,66,65,66,65,66,65,66,65,66,65,66,65,66,65,66,65,66,65,66,65,66,65,66,65,66,65,66,
66,45,44,44,44,44,44,45,66,65,66,65,66,65,66,65,66,65,66,65,66,65,66,65,65,66,44,45,44,45,44,45,44,45,44,45,44,45,44,45,44,45,44,45,44,45,44,45,44,45,44,45,44,45,44,45,44,45,44,45,44,45,44,45,
65,66,65,65,65,65,65,44,44,44,44,44,44,45,45,44,45,44,45,44,45,44,45,44,65,66,65,66,65,66,65,66,65,66,65,66,65,66,65,66,65,66,65,66,65,66,65,66,65,66,65,66,65,66,65,66,65,66,65,66,65,66,65,66,
44,45,65,66,65,66,66,65,65,65,65,65,44,44,44,44,44,44,44,44,44,44,44,65,65,66,44,45,44,45,44,45,44,45,44,45,44,45,44,45,44,45,44,45,44,45,44,45,44,45,44,45,44,45,44,45,44,45,44,45,44,45,44,45,
65,66,65,66,65,66,65,66,65,66,65,66,65,65,65,65,65,65,65,65,65,65,65,65,66,66,65,66,65,66,65,66,65,66,65,66,65,66,65,66,65,66,65,66,65,66,65,66,65,66,65,66,65,66,65,66,65,66,65,66,65,66,65,66,
44,45,44,45,44,45,44,45,44,45,44,45,44,45,44,45,44,45,44,45,44,45,44,45,44,45,44,45,44,45,44,45,44,45,44,45,44,45,44,45,44,45,44,45,44,45,44,45,44,45,44,45,44,45,44,45,44,45,44,45,44,45,44,45,
65,66,65,66,65,66,65,66,65,66,65,66,65,66,65,66,65,66,65,66,65,66,65,66,65,66,65,66,65,66,65,66,65,66,65,66,65,66,65,66,65,66,65,66,65,66,65,66,65,66,65,66,65,66,65,66,65,66,65,66,65,66,65,66,
44,45,44,45,44,45,44,45,44,45,44,45,44,45,44,45,44,45,44,45,44,45,44,45,44,45,44,45,44,45,44,45,44,45,44,45,44,45,44,45,44,45,44,45,44,45,44,45,44,45,44,45,44,45,44,45,44,45,44,45,44,45,44,45,
65,66,65,66,65,66,65,66,65,66,65,66,65,66,65,66,65,66,65,66,65,66,65,66,65,66,65,66,65,66,65,66,65,66,65,66,65,66,65,66,65,66,65,66,65,66,65,66,65,66,65,66,65,66,65,66,65,66,65,66,65,66,65,66,
44,45,44,45,44,45,44,45,44,45,44,45,44,45,44,45,44,45,44,45,44,45,44,45,44,45,44,45,44,45,44,45,44,45,44,45,44,45,44,45,44,45,44,45,44,45,44,45,44,45,44,45,44,45,44,45,44,45,44,45,44,45,44,45,
65,66,65,66,65,66,65,66,65,66,65,66,65,66,65,66,65,66,65,66,65,66,65,66,65,66,65,66,65,66,65,66,65,66,65,66,65,66,65,66,65,66,65,66,65,66,65,66,65,66,65,66,65,66,65,66,65,66,65,66,65,66,65,66,
44,45,44,45,44,45,44,45,44,45,44,45,44,45,44,45,44,45,44,45,44,45,44,45,44,45,44,45,44,45,44,45,44,45,44,45,44,45,44,45,44,45,44,45,44,45,44,45,44,45,44,45,44,45,44,45,44,45,44,45,44,45,44,45,
65,66,65,66,65,66,65,66,65,66,65,66,65,66,65,66,65,66,65,66,65,66,65,66,65,66,65,66,65,66,65,66,65,66,65,66,65,66,65,66,65,66,65,66,65,66,65,66,65,66,65,66,65,66,65,66,65,66,65,66,65,66,65,66,
44,45,44,45,44,45,44,45,44,45,44,45,44,45,44,45,44,45,44,45,44,45,44,45,44,45,44,45,44,45,44,45,44,45,44,45,44,45,44,45,44,45,44,45,44,45,44,45,44,45,44,45,44,45,44,45,44,45,44,45,44,45,44,45,
65,66,65,66,65,66,65,66,65,66,65,66,65,66,65,66,65,66,65,66,65,66,65,66,65,66,65,66,65,66,65,66,65,66,65,66,65,66,65,66,65,66,65,66,65,66,65,66,65,66,65,66,65,66,65,66,65,66,65,66,65,66,65,66,
44,45,44,45,44,45,44,45,44,45,44,45,44,45,44,45,44,45,44,45,44,45,44,45,44,45,44,45,44,45,44,45,44,45,44,45,44,45,44,45,44,45,44,45,44,45,44,45,44,45,44,45,44,45,44,45,44,45,44,45,44,45,44,45,
65,66,65,66,65,66,65,66,65,66,65,66,65,66,65,66,65,66,65,66,65,66,65,66,65,66,65,66,65,66,65,66,65,66,65,66,65,66,65,66,65,66,65,66,65,66,65,66,65,66,65,66,65,66,65,66,65,66,65,66,65,66,65,66,
44,45,44,45,44,45,44,45,44,45,44,45,44,45,44,45,44,45,44,45,44,45,44,45,44,45,44,45,44,45,44,45,44,45,44,45,44,45,44,45,44,45,44,45,44,45,44,45,44,45,44,45,44,45,44,45,44,45,44,45,44,45,44,45,
65,66,65,66,65,66,65,66,65,66,65,66,65,66,65,66,65,66,65,66,65,66,65,66,65,66,65,66,65,66,65,66,65,66,65,66,65,66,65,66,65,66,65,66,65,66,65,66,65,66,65,66,65,66,65,66,65,66,65,66,65,66,65,66,
44,45,44,45,44,45,44,45,44,45,44,45,44,45,44,45,44,45,44,45,44,45,44,45,44,45,44,45,44,45,44,45,44,45,44,45,44,45,44,45,44,45,44,45,44,45,44,45,44,45,44,45,44,45,44,45,44,45,44,45,44,45,44,45,
65,66,65,66,65,66,65,66,65,66,65,66,65,66,65,66,65,66,65,66,65,66,65,66,65,66,65,66,65,66,65,66,65,66,65,66,65,66,65,66,65,66,65,66,65,66,65,66,65,66,65,66,65,66,65,66,65,66,65,66,65,66,65,66,
44,45,44,45,44,45,44,45,44,45,44,45,44,45,44,45,44,45,44,45,44,45,44,45,44,45,44,45,44,45,44,45,44,45,44,45,44,45,44,45,44,45,44,45,44,45,44,45,44,45,44,45,44,45,44,45,44,45,44,45,44,45,44,45,
65,66,65,66,65,66,65,66,65,66,65,66,65,66,65,66,65,66,65,66,65,66,65,66,65,66,65,66,65,66,65,66,65,66,65,66,65,66,65,66,65,66,65,66,65,66,65,66,65,66,65,66,65,66,65,66,65,66,65,66,65,66,65,66,
44,45,44,45,44,45,44,45,44,45,44,45,44,45,44,45,44,45,44,45,44,45,44,45,44,45,44,45,44,45,44,45,44,45,44,45,44,45,44,45,44,45,44,45,44,45,44,45,44,45,44,45,44,45,44,45,44,45,44,45,44,45,44,45,
65,66,65,66,65,66,65,66,65,66,65,66,65,66,65,66,65,66,65,66,65,66,65,66,65,66,65,66,65,66,65,66,65,66,65,66,65,66,65,66,65,66,65,66,65,66,65,66,65,66,65,66,65,66,65,66,65,66,65,66,65,66,65,66,
44,45,44,45,44,45,44,45,44,45,44,45,44,45,44,45,44,45,44,45,44,45,44,45,44,45,44,45,44,45,44,45,44,45,44,45,44,45,44,45,44,45,44,45,44,45,44,45,44,45,44,45,44,45,44,45,44,45,44,45,44,45,44,45,
65,66,65,66,65,66,65,66,65,66,65,66,65,66,65,66,65,66,65,66,65,66,65,66,65,66,65,66,65,66,65,66,65,66,65,66,65,66,65,66,65,66,65,66,65,66,65,66,65,66,65,66,65,66,65,66,65,66,65,66,65,66,65,66,
44,45,44,45,44,45,44,45,44,45,44,45,44,45,44,45,44,45,44,45,44,45,44,45,44,45,44,45,44,45,44,45,44,45,44,45,44,45,44,45,44,45,44,45,44,45,44,45,44,45,44,45,44,45,44,45,44,45,44,45,44,45,44,45,
65,66,65,66,65,66,65,66,65,66,65,66,65,66,65,66,65,66,65,66,65,66,65,66,65,66,65,66,65,66,65,66,65,66,65,66,65,66,65,66,65,66,65,66,65,66,65,66,65,66,65,66,65,66,65,66,65,66,65,66,65,66,65,66,
44,45,44,45,44,45,44,45,44,45,44,45,44,45,44,45,44,45,44,45,44,45,44,45,44,45,44,45,44,45,44,45,44,45,44,45,44,45,44,45,44,45,44,45,44,45,44,45,44,45,44,45,44,45,44,45,44,45,44,45,44,45,44,45,
65,66,65,66,65,66,65,66,65,66,65,66,65,66,65,66,65,66,65,66,65,66,65,66,65,66,65,66,65,66,65,66,65,66,65,66,65,66,65,66,65,66,65,66,65,66,65,66,65,66,65,66,65,66,65,66,65,66,65,66,65,66,65,66,
44,45,44,45,44,45,44,45,44,45,44,45,44,45,44,45,44,45,44,45,44,45,44,45,44,45,44,45,44,45,44,45,44,45,44,45,44,45,44,45,44,45,44,45,44,45,44,45,44,45,44,45,44,45,44,45,44,45,44,45,44,45,44,45,
65,66,65,66,65,66,65,66,65,66,65,66,65,66,65,66,65,66,65,66,65,66,65,66,65,66,65,66,65,66,65,66,65,66,65,66,65,66,65,66,65,66,65,66,65,66,65,66,65,66,65,66,65,66,65,66,65,66,65,66,65,66,65,66,
44,45,44,45,44,45,44,45,44,45,44,45,44,45,44,45,44,45,44,45,44,45,44,45,44,45,44,45,44,45,44,45,44,45,44,45,44,45,44,45,44,45,44,45,44,45,44,45,44,45,44,45,44,45,44,45,44,45,44,45,44,45,44,45,
65,66,65,66,65,66,65,66,65,66,65,66,65,66,65,66,65,66,65,66,65,66,65,66,65,66,65,66,65,66,65,66,65,66,65,66,65,66,65,66,65,66,65,66,65,66,65,66,65,66,65,66,65,66,65,66,65,66,65,66,65,66,65,66,
44,45,44,45,44,45,44,45,44,45,44,45,44,45,44,45,44,45,44,45,44,45,44,45,44,45,44,45,44,45,44,45,44,45,44,45,44,45,44,45,44,45,44,45,44,45,44,45,44,45,44,45,44,45,44,45,44,45,44,45,44,45,44,45,
65,66,65,66,65,66,65,66,65,66,65,66,65,66,65,66,65,66,65,66,65,66,65,66,65,66,65,66,65,66,65,66,65,66,65,66,65,66,65,66,65,66,65,66,65,66,65,66,65,66,65,66,65,66,65,66,65,66,65,66,65,66,65,66,
44,45,44,45,44,45,44,45,44,45,44,45,44,45,44,45,44,45,44,45,44,45,44,45,44,45,44,45,44,45,44,45,44,45,44,45,44,45,44,45,44,45,44,45,44,45,44,45,44,45,44,45,44,45,44,45,44,45,44,45,44,45,44,45,
65,66,65,66,65,66,65,66,65,66,65,66,65,66,65,66,65,66,65,66,65,66,65,66,65,66,65,66,65,66,65,66,65,66,65,66,65,66,65,66,65,66,65,66,65,66,65,66,65,66,65,66,65,66,65,66,65,66,65,66,65,66,65,66
</data>
 </layer>
 <layer id="2" name="Acima do solo 2" width="64" height="64">
  <data encoding="csv">
492,507,520,521,521,521,521,521,521,521,521,521,464,465,520,520,520,520,520,520,520,520,520,520,520,520,521,520,520,520,520,520,520,520,520,520,520,520,520,520,520,520,520,520,520,520,520,520,520,520,520,520,520,520,520,520,520,520,520,520,520,520,520,521,
477,522,535,536,536,536,536,536,536,536,536,536,479,480,535,535,535,535,535,535,535,535,535,535,535,535,536,535,535,535,535,535,535,535,535,535,535,535,535,535,535,535,535,535,535,535,535,535,535,535,535,535,535,535,535,535,535,535,535,535,535,535,535,536,
492,537,490,0,0,0,0,0,0,0,0,0,494,495,0,0,0,124,175,176,177,145,146,146,145,146,146,125,0,0,0,0,0,0,0,0,0,0,0,0,0,0,0,0,0,0,0,0,0,0,0,0,0,0,0,0,0,0,0,0,0,0,0,0,
492,493,0,0,0,0,0,0,0,0,0,0,0,0,0,0,0,124,196,197,198,124,125,124,145,145,146,125,0,0,0,0,0,0,0,0,0,0,0,0,0,0,0,0,0,0,0,0,0,0,0,0,0,0,0,0,0,0,0,0,0,0,0,0,
492,493,0,0,0,0,0,0,0,0,0,0,0,0,0,0,0,145,217,218,219,145,146,145,145,145,146,146,0,0,0,0,0,0,0,0,0,0,0,0,0,0,0,0,0,0,0,0,0,0,0,0,0,0,0,0,0,0,0,0,0,0,488,489,
492,493,0,0,0,0,0,0,0,0,0,0,0,0,0,0,0,0,0,145,124,124,124,124,125,124,145,146,0,0,0,0,0,0,0,0,0,0,0,0,0,0,0,0,0,0,0,0,0,0,0,0,0,0,0,0,0,0,0,0,0,0,488,489,
492,493,0,0,0,0,0,0,0,0,0,0,0,0,0,0,0,0,0,0,145,145,145,124,124,145,145,146,0,0,0,0,0,0,0,0,0,0,0,0,0,0,0,0,0,0,0,0,0,0,0,0,0,0,0,0,0,0,0,0,0,0,488,489,
492,493,0,0,0,0,0,0,0,0,0,0,0,0,0,0,0,0,0,0,0,0,0,145,145,145,146,0,0,0,0,0,0,0,0,0,0,0,0,0,0,0,0,0,0,0,0,0,0,0,0,0,0,0,0,0,0,0,0,0,0,0,488,489,
492,493,0,0,0,0,0,0,0,0,0,0,0,0,0,0,0,0,0,0,0,0,0,0,0,0,0,0,0,0,0,0,0,0,0,0,0,0,0,0,0,0,0,0,0,0,0,0,0,0,0,0,0,0,0,0,0,0,0,0,0,0,488,489,
492,493,0,0,0,0,0,0,0,0,0,0,0,0,0,0,0,0,0,0,0,0,0,0,0,0,0,0,0,0,0,0,0,0,0,0,0,0,0,0,0,0,0,0,0,0,0,0,0,0,0,0,0,0,0,0,0,0,0,0,0,0,488,489,
492,493,0,0,0,0,0,0,0,0,0,0,0,0,0,0,0,0,0,0,0,0,0,0,0,0,0,0,0,0,0,0,0,0,0,0,0,0,0,0,0,0,0,0,0,0,0,0,0,0,0,0,0,0,0,0,0,0,0,0,0,0,488,489,
492,493,0,0,0,0,0,0,0,0,0,0,0,0,0,0,0,0,0,0,0,0,0,0,0,0,0,0,0,0,0,0,0,0,0,0,0,0,0,0,0,0,0,0,0,0,0,0,0,0,0,0,0,0,0,0,0,0,0,0,0,0,488,489,
492,493,0,0,0,0,0,0,0,0,0,0,0,0,0,0,0,0,0,0,91,93,0,0,0,0,0,0,0,0,0,0,0,0,0,0,0,0,0,0,0,0,0,0,0,0,0,0,0,0,0,0,0,0,0,0,0,0,0,0,0,0,488,489,
492,493,0,0,0,0,0,0,0,0,0,0,0,0,0,0,0,0,0,0,112,114,0,0,0,0,0,0,0,0,0,0,0,0,0,0,0,0,0,0,0,0,0,0,0,0,0,0,0,0,0,0,0,0,0,0,0,0,0,0,0,0,488,489,
492,493,0,0,0,0,0,0,0,0,0,0,0,0,0,0,0,0,0,0,112,114,0,0,0,0,0,0,0,0,0,0,0,0,0,0,0,0,0,0,0,0,0,0,0,0,0,0,0,0,0,0,0,0,0,0,0,0,0,0,0,0,488,489,
492,493,0,0,0,0,0,0,0,0,0,0,0,0,0,0,0,0,0,0,112,114,0,0,0,0,0,0,0,0,0,0,0,0,0,0,0,0,0,0,0,0,0,0,0,0,0,0,0,0,0,0,0,0,0,0,0,0,0,0,0,0,488,489,
492,493,0,0,0,0,0,0,0,0,0,0,0,0,0,0,0,0,0,0,112,114,0,0,0,0,0,0,0,0,0,0,0,0,0,0,0,0,0,0,0,0,0,0,0,0,0,0,0,0,0,0,0,0,0,0,0,0,0,0,0,0,488,489,
492,493,0,0,0,0,0,0,0,0,0,0,0,0,0,0,0,0,0,0,112,114,0,0,0,0,0,0,0,0,0,0,0,0,0,0,0,0,0,0,0,0,0,0,0,0,0,0,0,0,0,0,0,0,0,0,0,0,0,0,0,0,488,489,
492,493,0,0,0,0,0,0,0,0,0,0,0,0,0,0,0,0,0,0,112,114,0,0,0,0,0,0,0,0,0,0,0,0,0,0,0,0,0,0,0,0,0,0,0,0,0,0,0,0,0,0,0,0,0,0,0,0,0,0,0,0,488,489,
492,493,0,0,0,0,0,0,0,0,0,0,0,0,0,0,0,0,0,0,112,114,0,0,0,0,0,0,0,0,0,0,0,0,0,0,0,0,0,0,0,0,0,0,0,0,0,0,0,0,0,0,0,0,0,0,0,0,0,0,0,0,488,489,
492,493,0,0,0,0,0,0,0,0,0,0,0,0,0,0,0,0,0,0,112,114,0,0,0,0,0,0,0,0,0,0,0,0,0,0,0,0,0,0,0,0,0,0,0,0,0,0,0,0,0,0,0,0,0,0,0,0,0,0,0,0,488,489,
492,493,0,0,0,0,0,0,0,0,0,0,0,0,0,0,0,0,0,0,112,114,0,0,0,0,0,0,0,0,0,0,0,0,0,0,0,0,0,0,0,0,0,0,0,0,0,0,0,0,0,0,0,0,0,0,0,0,0,0,0,0,488,489,
492,493,0,0,0,0,0,0,0,0,0,0,0,0,0,0,0,0,0,0,112,114,0,0,0,0,0,0,0,0,0,0,0,0,0,0,0,0,0,0,0,0,0,0,0,0,0,0,0,0,0,0,0,0,0,0,0,0,0,0,0,0,488,489,
492,493,0,0,0,0,0,0,0,0,0,0,0,0,0,0,0,0,0,0,112,114,0,0,0,0,0,0,0,0,0,0,0,0,0,0,0,0,0,0,0,0,0,0,0,0,0,0,0,0,0,0,0,0,0,0,0,0,0,0,0,0,488,489,
492,493,0,0,0,0,0,0,0,0,0,0,0,0,0,0,0,0,0,0,112,114,0,0,0,0,0,0,0,0,0,0,0,0,0,0,0,0,0,0,0,0,0,0,0,0,0,0,0,0,0,0,0,0,0,0,0,0,0,0,0,0,488,489,
492,493,0,0,0,0,0,0,0,0,0,0,0,0,0,0,0,0,0,0,112,114,0,0,0,0,0,0,0,0,0,0,0,0,0,0,0,0,0,0,0,0,0,0,0,0,0,0,0,0,0,0,0,0,0,0,0,0,0,0,0,0,488,489,
492,493,0,0,0,0,0,0,0,0,0,0,0,0,0,0,0,0,0,0,112,114,0,0,0,0,0,0,0,0,0,0,0,0,0,0,0,0,0,0,0,0,0,0,0,0,0,0,0,0,0,0,0,0,0,0,0,0,0,0,0,0,488,489,
492,493,0,0,0,0,0,0,0,0,0,0,0,0,0,0,0,0,0,0,112,114,0,0,0,0,0,0,0,0,0,0,0,0,0,0,0,0,0,0,0,0,0,0,0,0,0,0,0,0,0,0,0,0,0,0,0,0,0,0,0,0,488,489,
492,493,0,0,0,0,0,0,0,0,0,0,0,0,0,0,0,0,0,0,112,114,0,0,0,0,0,0,0,0,0,0,0,0,0,0,0,0,0,0,0,0,0,0,0,0,0,0,0,0,0,0,0,0,0,0,0,0,0,0,0,0,488,489,
492,493,0,0,0,0,0,0,0,0,0,0,0,0,0,0,0,0,0,0,112,114,0,0,0,0,0,0,0,0,0,0,0,0,0,0,0,0,0,0,0,0,0,0,0,0,0,0,0,0,0,0,0,0,0,0,0,0,0,0,0,0,488,489,
492,493,0,0,0,0,0,0,0,0,0,0,0,0,0,0,0,0,0,0,112,114,0,0,0,0,0,0,0,0,0,0,0,0,0,0,0,0,0,0,0,0,0,0,0,0,0,0,0,0,0,0,0,0,0,0,0,0,0,0,0,0,488,489,
492,493,0,0,0,0,0,0,0,0,0,0,0,0,0,0,0,0,0,0,112,114,0,0,0,0,0,0,0,0,0,0,0,0,0,0,0,0,0,0,0,0,0,0,0,0,0,0,0,0,0,0,0,0,0,0,0,0,0,0,0,0,488,489,
492,493,0,0,0,0,0,0,0,0,0,0,0,0,0,0,0,0,0,0,112,114,0,0,0,0,0,0,0,0,0,0,0,0,0,0,0,0,0,0,0,0,0,0,0,0,0,0,0,0,0,0,0,0,0,0,0,0,0,0,0,0,488,489,
492,493,0,0,0,0,0,0,0,0,0,0,0,0,0,0,0,0,0,0,133,135,0,0,0,0,0,0,0,0,0,0,0,0,0,0,0,0,0,0,0,0,0,0,0,0,0,0,0,0,0,0,0,0,0,0,0,0,0,0,0,0,488,489,
492,493,0,0,0,0,0,0,0,0,0,0,0,0,0,0,0,0,0,0,0,0,0,0,0,0,0,0,0,0,0,0,0,0,0,0,0,0,0,0,0,0,0,0,0,0,0,0,0,0,0,0,0,0,0,0,0,0,0,0,0,0,488,489,
492,493,0,0,0,0,0,0,0,0,0,0,0,0,0,0,0,0,0,0,0,0,0,0,0,0,0,0,0,0,0,0,0,0,0,0,0,0,0,0,0,0,0,0,0,0,0,0,0,0,0,0,0,0,0,0,0,0,0,0,0,0,488,489,
492,493,0,0,0,0,0,0,0,0,0,0,0,0,0,0,0,0,0,0,0,0,0,0,0,0,0,0,0,0,0,0,0,0,0,0,0,0,0,0,0,0,0,0,0,0,0,0,0,0,0,0,0,0,0,0,0,0,0,0,0,0,488,489,
492,493,0,0,0,0,0,0,0,0,0,0,0,0,0,0,0,0,0,0,0,0,0,0,0,0,0,0,0,0,0,0,0,0,0,0,0,0,0,0,0,0,0,0,0,0,0,0,0,0,0,0,0,0,0,0,0,0,0,0,0,0,488,489,
492,493,0,0,0,0,0,0,0,0,0,0,0,0,0,0,0,0,0,0,0,0,0,0,0,0,0,0,0,0,0,0,0,0,0,0,0,0,0,0,0,0,0,0,0,0,0,0,0,0,0,0,0,0,0,0,0,0,0,0,0,0,488,489,
492,493,0,0,0,0,0,0,0,0,0,0,0,0,0,0,0,0,0,0,0,0,0,0,0,0,0,0,0,0,0,0,0,0,0,0,0,0,0,0,0,0,0,0,0,0,0,0,0,0,0,0,0,0,0,0,0,0,0,0,0,0,488,489,
492,493,0,0,0,0,0,0,0,0,0,0,0,0,0,0,0,0,0,0,0,0,0,0,0,0,0,0,0,0,0,0,0,0,0,0,0,0,0,0,0,0,0,0,0,0,0,0,0,0,0,0,0,0,0,0,0,0,0,0,0,0,488,489,
492,493,0,0,0,0,0,0,0,0,0,0,0,0,0,0,0,0,0,0,0,0,0,0,0,0,0,0,0,0,0,0,0,0,0,0,0,0,0,0,0,0,0,0,0,0,0,0,0,0,0,0,0,0,0,0,0,0,0,0,0,0,488,489,
492,493,0,0,0,0,0,0,0,0,0,0,0,0,0,0,0,0,0,0,0,0,0,0,0,0,0,0,0,0,0,0,0,0,0,0,0,0,0,0,0,0,0,0,0,0,0,0,0,0,0,0,0,0,0,0,0,0,0,0,0,0,488,489,
492,493,0,0,0,0,0,0,0,0,0,0,0,0,0,0,0,0,0,0,0,0,0,0,0,0,0,0,0,0,0,0,0,0,0,0,0,0,0,0,0,0,0,0,0,0,0,0,0,0,0,0,0,0,0,0,0,0,0,0,0,0,488,489,
492,493,0,0,0,0,0,0,0,0,0,0,0,0,0,0,0,0,0,0,0,0,0,0,0,0,0,0,0,0,0,0,0,0,0,0,0,0,0,0,0,0,0,0,0,0,0,0,0,0,0,0,0,0,0,0,0,0,0,0,0,0,488,489,
492,493,0,0,0,0,0,0,0,0,0,0,0,0,0,0,0,0,0,0,0,0,0,0,0,0,0,0,0,0,0,0,0,0,0,0,0,0,0,0,0,0,0,0,0,0,0,0,0,0,0,0,0,0,0,0,0,0,0,0,0,0,488,489,
492,493,0,0,0,0,0,0,0,0,0,0,0,0,0,0,0,0,0,0,0,0,0,0,0,0,0,0,0,0,0,0,0,0,0,0,0,0,0,0,0,0,0,0,0,0,0,0,0,0,0,0,0,0,0,0,0,0,0,0,0,0,488,489,
492,493,0,0,0,0,0,0,0,0,0,0,0,0,0,0,0,0,0,0,0,0,0,0,0,0,0,0,0,0,0,0,0,0,0,0,0,0,0,0,0,0,0,0,0,0,0,0,0,0,0,0,0,0,0,0,0,0,0,0,0,0,488,489,
492,493,0,0,0,0,0,0,0,0,0,0,0,0,0,0,0,0,0,0,0,0,0,0,0,0,0,0,0,0,0,0,0,0,0,0,0,0,0,0,0,0,0,0,0,0,0,0,0,0,0,0,0,0,0,0,0,0,0,0,0,0,488,489,
492,493,0,0,0,0,0,0,0,0,0,0,0,0,0,0,0,0,0,0,0,0,0,0,0,0,0,0,0,0,0,0,0,0,0,0,0,0,0,0,0,0,0,0,0,0,0,0,0,0,0,0,0,0,0,0,0,0,0,0,0,0,488,489,
492,493,0,0,0,0,0,0,0,0,0,0,0,0,0,0,0,0,0,0,0,0,0,0,0,0,0,0,0,0,0,0,0,0,0,0,0,0,0,0,0,0,0,0,0,0,0,0,0,0,0,0,0,0,0,0,0,0,0,0,0,0,488,489,
492,493,0,0,0,0,0,0,0,0,0,0,0,0,0,0,0,0,0,0,0,0,0,0,0,0,0,0,0,0,0,0,0,0,0,0,0,0,0,0,0,0,0,0,0,0,0,0,0,0,0,0,0,0,0,0,0,0,0,0,0,0,488,489,
492,493,0,0,0,0,0,0,0,0,0,0,0,0,0,0,0,0,0,0,0,0,0,0,0,0,0,0,0,0,0,0,0,0,0,0,0,0,0,0,0,0,0,0,0,0,0,0,0,0,0,0,0,0,0,0,0,0,0,0,0,0,488,489,
492,493,0,0,0,0,0,0,0,0,0,0,0,0,0,0,0,0,0,0,0,0,0,0,0,0,0,0,0,0,0,0,0,0,0,0,0,0,0,0,0,0,0,0,0,0,0,0,0,0,0,0,0,0,0,0,0,0,0,0,0,0,488,489,
492,493,0,0,0,0,0,0,0,0,0,0,0,0,0,0,0,0,0,0,0,0,0,0,0,0,0,0,0,0,0,0,0,0,0,0,0,0,0,0,0,0,0,0,0,0,0,0,0,0,0,0,0,0,0,0,0,0,0,0,0,0,488,489,
492,493,0,0,0,0,0,0,0,0,0,0,0,0,0,0,0,0,0,0,0,0,0,0,0,0,0,0,0,0,0,0,0,0,0,0,0,0,0,0,0,0,0,0,0,0,0,0,0,0,0,0,0,0,0,0,0,0,0,0,0,0,488,489,
492,493,0,0,0,0,0,0,0,0,0,0,0,0,0,0,0,0,0,0,0,0,0,0,0,0,0,0,0,0,0,0,0,0,0,0,0,0,0,0,0,0,0,0,0,0,0,0,0,0,0,0,0,0,0,0,0,0,0,0,0,0,488,489,
492,493,0,0,0,0,0,0,0,0,0,0,0,0,0,0,0,0,0,0,0,0,0,0,0,0,0,0,0,0,0,0,0,0,0,0,0,0,0,0,0,0,0,0,0,0,0,0,0,0,0,0,0,0,0,0,0,0,0,0,0,0,488,489,
492,493,0,0,0,0,0,0,0,0,0,0,0,0,0,0,0,0,0,0,0,0,0,0,0,0,0,0,0,0,0,0,0,0,0,0,0,0,0,0,0,0,0,0,0,0,0,0,0,0,0,0,0,0,0,0,0,0,0,0,0,0,488,489,
492,493,0,0,0,0,0,0,0,0,0,0,0,0,0,0,0,0,0,0,0,0,0,0,0,0,0,0,0,0,0,0,0,0,0,0,0,0,0,0,0,0,0,0,0,0,0,0,0,0,0,0,0,0,0,0,0,0,0,0,0,0,488,489,
492,493,0,0,0,0,0,0,0,0,0,0,0,0,0,0,0,0,0,0,0,0,0,0,0,0,0,0,0,0,0,0,0,0,0,0,0,0,0,0,0,0,0,0,0,0,0,0,0,0,0,0,0,0,0,0,0,0,0,0,0,0,488,489,
492,493,489,0,0,0,0,0,0,0,0,0,0,0,0,0,0,0,0,0,0,0,0,0,0,0,0,0,0,0,0,0,0,0,0,0,0,0,0,0,0,0,0,0,0,0,0,0,0,0,0,0,0,0,0,0,0,0,0,0,0,0,488,489,
492,462,445,446,446,446,446,446,446,446,446,446,446,446,446,446,446,446,446,446,446,446,446,446,446,446,446,446,446,446,446,446,446,446,445,446,446,446,446,446,446,446,446,446,446,446,446,446,446,446,446,446,446,446,446,445,446,446,446,446,446,0,488,489,
461,461,460,461,461,461,461,461,461,461,461,461,461,461,461,461,461,461,461,461,461,461,461,461,461,461,461,461,461,461,461,461,461,461,460,461,461,461,461,461,461,461,461,461,461,461,461,461,461,461,461,461,461,461,461,460,461,461,461,461,461,0,0,0
</data>
 </layer>
 <layer id="3" name="Detalhes 3" width="64" height="64">
  <data encoding="csv">
0,0,0,0,0,0,0,0,0,0,0,0,0,0,0,0,0,0,0,0,0,0,0,0,0,0,0,0,0,0,0,0,0,0,0,0,0,0,0,0,0,0,0,0,0,0,0,0,0,0,0,0,0,0,0,0,0,0,0,0,0,442,443,444,
0,478,0,0,0,0,0,0,0,0,0,0,0,0,0,0,0,0,0,0,0,0,0,0,0,0,0,0,0,0,0,0,0,0,0,0,0,0,0,0,0,0,0,0,0,0,0,0,0,0,0,0,0,0,0,0,0,0,0,0,0,457,458,459,
0,493,0,0,0,0,0,0,0,0,0,0,0,0,0,0,0,0,0,0,0,0,0,0,0,0,0,0,0,0,0,0,0,0,0,0,0,0,0,0,0,0,0,0,0,0,0,0,0,0,0,0,0,0,0,0,0,0,0,0,0,472,473,474,
0,0,0,0,0,0,0,0,0,0,0,0,0,0,0,0,0,0,0,0,0,0,0,0,0,0,0,0,0,0,0,0,0,0,0,0,0,0,0,0,0,0,0,0,0,0,0,0,0,0,0,0,0,0,0,0,0,0,0,0,0,487,488,489,
0,0,0,0,0,0,0,0,0,0,0,0,0,0,0,0,0,0,0,0,0,0,0,0,0,0,0,0,0,0,0,0,0,0,0,0,0,0,0,0,0,0,0,0,0,0,0,0,0,0,0,0,0,0,0,0,0,0,0,0,0,0,0,0,
0,0,0,0,0,0,0,0,0,0,0,0,0,0,0,0,0,0,0,0,0,0,0,0,0,0,0,0,0,0,0,0,0,0,0,0,0,0,0,0,0,0,0,0,0,0,0,0,0,0,0,0,0,0,0,0,0,0,0,0,0,0,0,0,
0,0,0,0,0,0,0,0,0,0,0,0,0,0,0,0,0,0,0,0,0,0,0,0,0,0,0,0,0,0,0,0,0,0,0,0,0,0,0,0,0,0,0,0,0,0,0,0,0,0,0,0,0,0,0,0,0,0,0,0,0,0,0,0,
0,0,0,0,0,0,0,0,0,0,0,0,0,0,0,0,0,0,0,0,0,0,0,0,0,0,0,0,0,0,0,0,0,0,0,0,0,0,0,0,0,0,0,0,0,0,0,0,0,0,0,0,0,0,0,0,0,0,0,0,0,0,0,0,
0,0,0,0,0,0,0,0,0,0,0,0,0,0,0,0,0,0,0,0,0,0,0,0,0,0,0,0,0,0,0,0,0,0,0,0,0,0,0,0,0,0,0,0,0,0,0,0,0,0,0,0,0,0,0,0,0,0,0,0,0,0,0,0,
0,0,0,0,0,0,0,0,0,0,0,0,0,0,0,0,0,0,0,0,0,0,0,0,0,0,0,0,0,0,0,0,0,0,0,0,0,0,0,0,0,0,0,0,0,0,0,0,0,0,0,0,0,0,0,0,0,0,0,0,0,0,0,0,
0,0,0,0,0,0,0,0,0,0,0,0,0,0,0,0,0,0,0,0,0,0,0,0,0,0,0,0,0,0,0,0,0,0,0,0,0,0,0,0,0,0,0,0,0,0,0,0,0,0,0,0,0,0,0,0,0,0,0,0,0,0,0,0,
0,0,0,0,0,0,0,0,0,0,0,0,0,0,0,0,0,0,0,0,0,0,0,0,0,0,0,0,0,0,0,0,0,0,0,0,0,0,0,0,0,0,0,0,0,0,0,0,0,0,0,0,0,0,0,0,0,0,0,0,0,0,0,0,
0,0,0,0,0,0,0,0,0,0,0,0,0,0,0,0,0,0,0,0,0,0,0,0,0,0,0,0,0,0,0,0,0,0,0,0,0,0,0,0,0,0,0,0,0,0,0,0,0,0,0,0,0,0,0,0,0,0,0,0,0,0,0,0,
0,0,0,0,0,0,0,0,0,0,0,0,0,0,0,0,0,0,0,0,0,0,0,0,0,0,0,0,0,0,0,0,0,0,0,0,0,0,0,0,0,0,0,0,0,0,0,0,0,0,0,0,0,0,0,0,0,0,0,0,0,0,0,0,
0,0,0,0,0,0,0,0,0,0,0,0,0,0,0,0,0,0,0,0,0,0,0,0,0,0,0,0,0,0,0,0,0,0,0,0,0,0,0,0,0,0,0,0,0,0,0,0,0,0,0,0,0,0,0,0,0,0,0,0,0,0,0,0,
0,0,0,0,0,0,0,0,0,0,0,0,0,0,0,0,0,0,0,0,0,0,0,0,0,0,0,0,0,0,0,0,0,0,0,0,0,0,0,0,0,0,0,0,0,0,0,0,0,0,0,0,0,0,0,0,0,0,0,0,0,0,0,0,
0,0,0,0,0,0,0,0,0,0,0,0,0,0,0,0,0,0,0,0,0,0,0,0,0,0,0,0,0,0,0,0,0,0,0,0,0,0,0,0,0,0,0,0,0,0,0,0,0,0,0,0,0,0,0,0,0,0,0,0,0,0,0,0,
0,0,0,0,0,0,0,0,0,0,0,0,0,0,0,0,0,0,0,0,0,0,0,0,0,0,0,0,0,0,0,0,0,0,0,0,0,0,0,0,0,0,0,0,0,0,0,0,0,0,0,0,0,0,0,0,0,0,0,0,0,0,0,0,
0,0,0,0,0,0,0,0,0,0,0,0,0,0,0,0,0,0,0,0,0,0,0,0,0,0,0,0,0,0,0,0,0,0,0,0,0,0,0,0,0,0,0,0,0,0,0,0,0,0,0,0,0,0,0,0,0,0,0,0,0,0,0,0,
0,0,0,0,0,0,0,0,0,0,0,0,0,0,0,0,0,0,0,0,0,0,0,0,0,0,0,0,0,0,0,0,0,0,0,0,0,0,0,0,0,0,0,0,0,0,0,0,0,0,0,0,0,0,0,0,0,0,0,0,0,0,0,0,
0,0,0,0,0,0,0,0,0,0,0,0,0,0,0,0,0,0,0,0,0,0,0,0,0,0,0,0,0,0,0,0,0,0,0,0,0,0,0,0,0,0,0,0,0,0,0,0,0,0,0,0,0,0,0,0,0,0,0,0,0,0,0,0,
0,0,0,0,0,0,0,0,0,0,0,0,0,0,0,0,0,0,0,0,0,0,0,0,0,0,0,0,0,0,0,0,0,0,0,0,0,0,0,0,0,0,0,0,0,0,0,0,0,0,0,0,0,0,0,0,0,0,0,0,0,0,0,0,
0,0,0,0,0,0,0,0,0,0,0,0,0,0,0,0,0,0,0,0,0,0,0,0,0,0,0,0,0,0,0,0,0,0,0,0,0,0,0,0,0,0,0,0,0,0,0,0,0,0,0,0,0,0,0,0,0,0,0,0,0,0,0,0,
0,0,0,0,0,0,0,0,0,0,0,0,0,0,0,0,0,0,0,0,0,0,0,0,0,0,0,0,0,0,0,0,0,0,0,0,0,0,0,0,0,0,0,0,0,0,0,0,0,0,0,0,0,0,0,0,0,0,0,0,0,0,0,0,
0,0,0,0,0,0,0,0,0,0,0,0,0,0,0,0,0,0,0,0,0,0,0,0,0,0,0,0,0,0,0,0,0,0,0,0,0,0,0,0,0,0,0,0,0,0,0,0,0,0,0,0,0,0,0,0,0,0,0,0,0,0,0,0,
0,0,0,0,0,0,0,0,0,0,0,0,0,0,0,0,0,0,0,0,0,0,0,0,0,0,0,0,0,0,0,0,0,0,0,0,0,0,0,0,0,0,0,0,0,0,0,0,0,0,0,0,0,0,0,0,0,0,0,0,0,0,0,0,
0,0,0,0,0,0,0,0,0,0,0,0,0,0,0,0,0,0,0,0,0,0,0,0,0,0,0,0,0,0,0,0,0,0,0,0,0,0,0,0,0,0,0,0,0,0,0,0,0,0,0,0,0,0,0,0,0,0,0,0,0,0,0,0,
0,0,0,0,0,0,0,0,0,0,0,0,0,0,0,0,0,0,0,0,0,0,0,0,0,0,0,0,0,0,0,0,0,0,0,0,0,0,0,0,0,0,0,0,0,0,0,0,0,0,0,0,0,0,0,0,0,0,0,0,0,0,0,0,
0,0,0,0,0,0,0,0,0,0,0,0,0,0,0,0,0,0,0,0,0,0,0,0,0,0,0,0,0,0,0,0,0,0,0,0,0,0,0,0,0,0,0,0,0,0,0,0,0,0,0,0,0,0,0,0,0,0,0,0,0,0,0,0,
0,0,0,0,0,0,0,0,0,0,0,0,0,0,0,0,0,0,0,0,0,0,0,0,0,0,0,0,0,0,0,0,0,0,0,0,0,0,0,0,0,0,0,0,0,0,0,0,0,0,0,0,0,0,0,0,0,0,0,0,0,0,0,0,
0,0,0,0,0,0,0,0,0,0,0,0,0,0,0,0,0,0,0,0,0,0,0,0,0,0,0,0,0,0,0,0,0,0,0,0,0,0,0,0,0,0,0,0,0,0,0,0,0,0,0,0,0,0,0,0,0,0,0,0,0,0,0,0,
0,0,0,0,0,0,0,0,0,0,0,0,0,0,0,0,0,0,0,0,0,0,0,0,0,0,0,0,0,0,0,0,0,0,0,0,0,0,0,0,0,0,0,0,0,0,0,0,0,0,0,0,0,0,0,0,0,0,0,0,0,0,0,0,
0,0,0,0,0,0,0,0,0,0,0,0,0,0,0,0,0,0,0,0,0,0,0,0,0,0,0,0,0,0,0,0,0,0,0,0,0,0,0,0,0,0,0,0,0,0,0,0,0,0,0,0,0,0,0,0,0,0,0,0,0,0,0,0,
0,0,0,0,0,0,0,0,0,0,0,0,0,0,0,0,0,0,0,0,0,0,0,0,0,0,0,0,0,0,0,0,0,0,0,0,0,0,0,0,0,0,0,0,0,0,0,0,0,0,0,0,0,0,0,0,0,0,0,0,0,0,0,0,
0,0,0,0,0,0,0,0,0,0,0,0,0,0,0,0,0,0,0,0,0,0,0,0,0,0,0,0,0,0,0,0,0,0,0,0,0,0,0,0,0,0,0,0,0,0,0,0,0,0,0,0,0,0,0,0,0,0,0,0,0,0,0,0,
0,0,0,0,0,0,0,0,0,0,0,0,0,0,0,0,0,0,0,0,0,0,0,0,0,0,0,0,0,0,0,0,0,0,0,0,0,0,0,0,0,0,0,0,0,0,0,0,0,0,0,0,0,0,0,0,0,0,0,0,0,0,0,0,
0,0,0,0,0,0,0,0,0,0,0,0,0,0,0,0,0,0,0,0,0,0,0,0,0,0,0,0,0,0,0,0,0,0,0,0,0,0,0,0,0,0,0,0,0,0,0,0,0,0,0,0,0,0,0,0,0,0,0,0,0,0,0,0,
0,0,0,0,0,0,0,0,0,0,0,0,0,0,0,0,0,0,0,0,0,0,0,0,0,0,0,0,0,0,0,0,0,0,0,0,0,0,0,0,0,0,0,0,0,0,0,0,0,0,0,0,0,0,0,0,0,0,0,0,0,0,0,0,
0,0,0,0,0,0,0,0,0,0,0,0,0,0,0,0,0,0,0,0,0,0,0,0,0,0,0,0,0,0,0,0,0,0,0,0,0,0,0,0,0,0,0,0,0,0,0,0,0,0,0,0,0,0,0,0,0,0,0,0,0,0,0,0,
0,0,0,0,0,0,0,0,0,0,0,0,0,0,0,0,0,0,0,0,0,0,0,0,0,0,0,0,0,0,0,0,0,0,0,0,0,0,0,0,0,0,0,0,0,0,0,0,0,0,0,0,0,0,0,0,0,0,0,0,0,0,0,0,
0,0,0,0,0,0,0,0,0,0,0,0,0,0,0,0,0,0,0,0,0,0,0,0,0,0,0,0,0,0,0,0,0,0,0,0,0,0,0,0,0,0,0,0,0,0,0,0,0,0,0,0,0,0,0,0,0,0,0,0,0,0,0,0,
0,0,0,0,0,0,0,0,0,0,0,0,0,0,0,0,0,0,0,0,0,0,0,0,0,0,0,0,0,0,0,0,0,0,0,0,0,0,0,0,0,0,0,0,0,0,0,0,0,0,0,0,0,0,0,0,0,0,0,0,0,0,0,0,
0,0,0,0,0,0,0,0,0,0,0,0,0,0,0,0,0,0,0,0,0,0,0,0,0,0,0,0,0,0,0,0,0,0,0,0,0,0,0,0,0,0,0,0,0,0,0,0,0,0,0,0,0,0,0,0,0,0,0,0,0,0,0,0,
0,0,0,0,0,0,0,0,0,0,0,0,0,0,0,0,0,0,0,0,0,0,0,0,0,0,0,0,0,0,0,0,0,0,0,0,0,0,0,0,0,0,0,0,0,0,0,0,0,0,0,0,0,0,0,0,0,0,0,0,0,0,0,0,
0,0,0,0,0,0,0,0,0,0,0,0,0,0,0,0,0,0,0,0,0,0,0,0,0,0,0,0,0,0,0,0,0,0,0,0,0,0,0,0,0,0,0,0,0,0,0,0,0,0,0,0,0,0,0,0,0,0,0,0,0,0,0,0,
0,0,0,0,0,0,0,0,0,0,0,0,0,0,0,0,0,0,0,0,0,0,0,0,0,0,0,0,0,0,0,0,0,0,0,0,0,0,0,0,0,0,0,0,0,0,0,0,0,0,0,0,0,0,0,0,0,0,0,0,0,0,0,0,
0,0,0,0,0,0,0,0,0,0,0,0,0,0,0,0,0,0,0,0,0,0,0,0,0,0,0,0,0,0,0,0,0,0,0,0,0,0,0,0,0,0,0,0,0,0,0,0,0,0,0,0,0,0,0,0,0,0,0,0,0,0,0,0,
0,0,0,0,0,0,0,0,0,0,0,0,0,0,0,0,0,0,0,0,0,0,0,0,0,0,0,0,0,0,0,0,0,0,0,0,0,0,0,0,0,0,0,0,0,0,0,0,0,0,0,0,0,0,0,0,0,0,0,0,0,0,0,0,
0,0,0,0,0,0,0,0,0,0,0,0,0,0,0,0,0,0,0,0,0,0,0,0,0,0,0,0,0,0,0,0,0,0,0,0,0,0,0,0,0,0,0,0,0,0,0,0,0,0,0,0,0,0,0,0,0,0,0,0,0,0,0,0,
0,0,0,0,0,0,0,0,0,0,0,0,0,0,0,0,0,0,0,0,0,0,0,0,0,0,0,0,0,0,0,0,0,0,0,0,0,0,0,0,0,0,0,0,0,0,0,0,0,0,0,0,0,0,0,0,0,0,0,0,0,0,0,0,
0,0,0,0,0,0,0,0,0,0,0,0,0,0,0,0,0,0,0,0,0,0,0,0,0,0,0,0,0,0,0,0,0,0,0,0,0,0,0,0,0,0,0,0,0,0,0,0,0,0,0,0,0,0,0,0,0,0,0,0,0,0,0,0,
0,0,0,0,0,0,0,0,0,0,0,0,0,0,0,0,0,0,0,0,0,0,0,0,0,0,0,0,0,0,0,0,0,0,0,0,0,0,0,0,0,0,0,0,0,0,0,0,0,0,0,0,0,0,0,0,0,0,0,0,0,0,0,0,
0,0,0,0,0,0,0,0,0,0,0,0,0,0,0,0,0,0,0,0,0,0,0,0,0,0,0,0,0,0,0,0,0,0,0,0,0,0,0,0,0,0,0,0,0,0,0,0,0,0,0,0,0,0,0,0,0,0,0,0,0,0,0,0,
0,0,0,0,0,0,0,0,0,0,0,0,0,0,0,0,0,0,0,0,0,0,0,0,0,0,0,0,0,0,0,0,0,0,0,0,0,0,0,0,0,0,0,0,0,0,0,0,0,0,0,0,0,0,0,0,0,0,0,0,0,0,0,0,
490,0,0,0,0,0,0,0,0,0,0,0,0,0,0,0,0,0,0,0,0,0,0,0,0,0,0,0,0,0,0,0,0,0,0,0,0,0,0,0,0,0,0,0,0,0,0,0,0,0,0,0,0,0,0,0,0,0,0,0,0,0,0,0,
490,490,0,0,0,0,0,0,0,0,0,0,0,0,0,0,0,0,0,0,0,0,0,0,0,0,0,0,0,0,0,0,0,0,0,0,0,0,0,0,0,0,0,0,0,0,0,0,0,0,0,0,0,0,0,0,0,0,0,0,0,0,0,0,
490,490,0,0,0,0,0,0,0,0,0,0,0,0,0,0,0,0,0,0,0,0,0,0,0,0,0,0,0,0,0,0,0,0,0,0,0,0,0,0,0,0,0,0,0,0,0,0,0,0,0,0,0,0,0,0,0,0,0,0,0,0,0,0,
490,0,0,0,0,0,0,0,0,0,0,0,0,0,0,0,0,0,0,0,0,0,0,0,0,0,0,0,0,0,0,0,0,0,0,0,0,0,0,0,0,0,0,0,0,0,0,0,0,0,0,0,0,0,0,0,0,0,0,0,0,0,0,0,
490,0,0,0,0,0,0,0,0,0,0,0,0,0,0,0,0,0,0,0,0,0,0,0,0,0,0,0,0,0,0,0,0,0,0,0,0,0,0,0,0,0,0,0,0,0,0,0,0,0,0,0,0,0,0,0,0,0,0,0,0,0,0,0,
490,490,0,0,0,0,0,0,0,0,0,0,0,0,0,0,0,0,0,0,0,0,0,0,0,0,0,0,0,0,0,0,0,0,0,0,0,0,0,0,0,0,0,0,0,0,0,0,0,0,0,0,0,0,0,0,0,0,0,0,0,0,0,0,
477,478,0,0,0,0,0,0,0,0,0,0,0,0,0,0,0,0,0,0,0,0,0,0,0,0,0,0,0,0,0,0,0,0,0,0,0,0,0,0,0,0,0,0,0,0,0,0,0,0,0,0,0,0,0,0,0,0,0,0,0,0,0,0,
492,493,0,0,0,0,0,0,0,0,0,0,0,0,0,0,0,0,0,0,0,0,0,0,0,0,0,0,0,0,0,0,0,0,0,0,0,0,0,0,0,0,0,0,0,0,0,0,0,0,0,0,0,0,0,0,0,0,0,0,0,0,0,0,
443,539,445,0,0,0,0,0,0,0,0,0,0,0,0,0,0,0,0,0,0,0,0,0,0,0,0,0,0,0,0,0,0,0,0,0,0,0,0,0,0,0,0,0,0,0,0,0,0,0,0,0,0,0,0,0,0,0,0,0,0,445,446,0,
461,461,460,0,0,0,0,0,0,0,0,0,0,0,0,0,0,0,0,0,0,0,0,0,0,0,0,0,0,0,0,0,0,0,0,0,0,0,0,0,0,0,0,0,0,0,0,0,0,0,0,0,0,0,0,0,0,0,0,0,0,460,461,0
</data>
 </layer>
</map>
